X: 70
T: Lihongtai angua
L: 1/8
M: 2/4
K: F
d d c A [I:setbarnb 1]| 
d d c A | 
c2d A | 
G FD2 | 
f f e d | 
c c A G | 
c F G D | 
C4 |]

@@@ Tune index: 8944
